X: 2287
T: Back Of The Haggard, The
R: hornpipe
M: 4/4
K: Dmajor
|:(3ABc|dcdf ec (3ABc|dBGB AFDF|EGFA GBgf|(3efd (3cdB (3ABG (3FGE|
dcdf e^deg|fefg afdA|BdcB (3ABA (3GFE|1 (3DED CE D2:|2 (3DFA (3dAF D3||
|:B|A^GAc ecAc|edcB Adfa|(3gag eg (3faf df|edcB AGFE|
DFAd EGBd|FAdf afdA|(3Bcd cB (3ABA (3GFE|D2 d2 D3:|

